!!!SOCIAL_FUNCTION:	war songs
!!!PDT:	1943
!!!OTL: No_27_Song_When_Going_to_War.krn
!!!REG: British Columbia
**kern	**kern
*staff2	*staff1
=1-	=1-
*clefF4	*clefF4
*k[b-]	*k[b-]
*M2/4	*M2/4
8GG^/L	4.c\
8GG/J	.
8GG^/L	.
8GG/J	8B-\
=2	=2
8GG^/L	12A\L
.	12G\
8GG/J	.
.	12G\J
4r	8G\
.	8r
=3	=3
2r	4.d\
.	8c\
=4	=4
2r	4c\
.	8d\L
.	8c\J
=5	=5
2r	4.c\
.	8B-\
=6	=6
2r	12A\L
.	12G\
.	12G\J
.	8G\
.	8r
=7	=7
2r	4.c\
.	8B-\
=8	=8
2r	12A\L
.	12G\
.	12G\J
.	4G\
=9	=9
2r	4c^\
.	4G^\
=10	=10
2r	12A\L
.	12G\
.	12G\J
.	8F\
.	8r
=11	=11
2r	2G\
=12	=12
2r	8A\L
.	8G\J
.	8G\L
.	8F\J
=13	=13
2r	4.G\
.	8F\
=14	=14
2r	12D\L
.	12D\
.	12C\J
.	8C/
.	8r
=15	=15
2r	4D\
.	8G\L
.	8F\J
=16||	=16||
*M3/4	*M3/4
2.r	8F\L
.	8D\J
.	8F\
.	8r
.	12F\L
.	12D\
.	12C\J
=17	=17
2.r	2.C/
=18||	=18||
*M2/4	*M2/4
2r	4C/
.	4C/
=19	=19
2r	4D\
.	8D\
.	8r
==	==
*-	*-
